resources/haticons/SVG/view_week.svg

<!-- Generated by IcoMoon.io -->
<svg version="1.1" xmlns="http://www.w3.org/2000/svg" width="24" height="24" viewBox="0 0 24 24">
<title>view_week</title>
<path d="M12.984 5.016q0.422 0 0.727 0.281t0.305 0.703v12q0 0.422-0.305 0.703t-0.727 0.281h-3q-0.422 0-0.703-0.281t-0.281-0.703v-12q0-0.422 0.281-0.703t0.703-0.281h3zM20.016 5.016q0.422 0 0.703 0.281t0.281 0.703v12q0 0.422-0.281 0.703t-0.703 0.281h-3q-0.422 0-0.727-0.281t-0.305-0.703v-12q0-0.422 0.305-0.703t0.727-0.281h3zM6 5.016q0.422 0 0.703 0.281t0.281 0.703v12q0 0.422-0.281 0.703t-0.703 0.281h-3q-0.422 0-0.703-0.281t-0.281-0.703v-12q0-0.422 0.281-0.703t0.703-0.281h3z"></path>
</svg>

<svg xmlns="http://www.w3.org/2000/svg" width="24" height="24"><path d="M12.984 5.016q.422 0 .727.281t.305.703v12q0 .422-.305.703t-.727.281h-3q-.422 0-.703-.281T9 18V6q0-.422.281-.703t.703-.281h3zm7.032 0q.422 0 .703.281T21 6v12q0 .422-.281.703t-.703.281h-3q-.422 0-.727-.281T15.984 18V6q0-.422.305-.703t.727-.281h3zM6 5.016q.422 0 .703.281T6.984 6v12q0 .422-.281.703T6 18.984H3q-.422 0-.703-.281T2.016 18V6q0-.422.281-.703T3 5.016h3z"/></svg>
